src/pos-icons/shield-off.svg

<svg height="24" viewBox="0 0 24 24" width="24" xmlns="http://www.w3.org/2000/svg"><path d="m1 4.27 1.28-1.27 18.22 18.22-1.27 1.28-2.23-2.25c-1.43 1.32-3.13 2.29-5 2.75-5.16-1.26-9-6.45-9-12v-4.73zm11-3.27 9 4v6c0 2.28-.65 4.5-1.77 6.41l-13.58-13.59z"/></svg>

<?xml version="1.0" encoding="UTF-8"?><!DOCTYPE svg PUBLIC "-//W3C//DTD SVG 1.1//EN" "http://www.w3.org/Graphics/SVG/1.1/DTD/svg11.dtd"><svg xmlns="http://www.w3.org/2000/svg" xmlns:xlink="http://www.w3.org/1999/xlink" version="1.1" id="mdi-shield-off" width="24" height="24" viewBox="0 0 24 24"><path d="M1,4.27L2.28,3L20.5,21.22L19.23,22.5L17,20.25C15.57,21.57 13.87,22.54 12,23C6.84,21.74 3,16.55 3,11V6.27L1,4.27M12,1L21,5V11C21,13.28 20.35,15.5 19.23,17.41L5.65,3.82L12,1Z" /></svg>
